src/22/actions/akonadiconsole.svg

<svg xmlns="http://www.w3.org/2000/svg" viewBox="0 0 22 22">
  <defs id="defs3051">
    <style type="text/css" id="current-color-scheme">
      .ColorScheme-Text {
        color:#5d656b;
      }
      </style>
  </defs>
 <path 
    style="fill:currentColor;fill-opacity:1;stroke:none" 
    d="M 3 3 L 3 4 L 3 15 L 3 16 L 3 19 L 4 19 L 6 19 L 14 19 L 18 19 L 19 19 L 19 4 L 19 3 L 3 3 z M 4 4 L 18 4 L 18 18 L 14 18 L 6 18 L 4 18 L 4 16 L 4 15 L 4 4 z M 6.7070312 7 L 6 7.7070312 L 7.7929688 9.5 L 6 11.292969 L 6.7070312 12 L 9 9.7070312 L 9.2070312 9.5 L 9 9.2929688 L 6.7070312 7 z M 10 10.998047 L 10 11.998047 L 14 11.998047 L 14 10.998047 L 10 10.998047 z "
    class="ColorScheme-Text"
    />  
</svg>

<svg xmlns="http://www.w3.org/2000/svg" viewBox="0 0 22 22"><path d="M3 3v16h16V3H3zm1 1h14v14H4V4zm2.707 3L6 7.707 7.793 9.5 6 11.293l.707.707L9 9.707l.207-.207L9 9.293 6.707 7zM10 10.998v1h4v-1h-4z" fill="currentColor" color="#5d656b"/></svg>
